X: 33616
T: Rakish Paddy
R: reel
M: 4/4
K: Adorian
|:c2cd c2 AB|cAGE CDEC|D2d^c defe|dcAG FGAB|
c2cd cBAB|cAGE CDEC|DEFG ABcA|1 dcAG FGAB:|2 dcAG FGA2||
|:egfg ag ~g2|egfg ed^cd|ea^ga ba^ga|ea^ga ed^cd|
e2g2 a2g2|~f2ef defg|afge defe|1 dcAG FGA2:|2 dcAG FGAB||

